badges/bullhorn-light.svg

<svg width="114" height="40" viewBox="0 0 114 40" fill="none" xmlns="http://www.w3.org/2000/svg">
<rect x="0.5" y="0.5" width="113" height="39" rx="4.5" fill="white"/>
<path d="M10.525 29.475C8.685 27.635 8 24.635 8 20C8 15.365 8.685 12.365 10.525 10.525C12.365 8.685 15.365 8 20 8C24.635 8 27.635 8.685 29.475 10.525C31.315 12.365 32 15.365 32 20C32 24.635 31.315 27.635 29.475 29.475C27.635 31.315 24.635 32 20 32C15.365 32 12.365 31.315 10.525 29.475Z" fill="#F5F5F5"/>
<path fill-rule="evenodd" clip-rule="evenodd" d="M13.495 21.23C13.495 21.23 16.81 19.2 18 16.545C18.615 18.445 18.875 19.085 18.875 19.085C18.875 19.085 16.075 21.705 13.86 22.67L13.5 21.235L13.495 21.23Z" fill="#FF866A"/>
<path fill-rule="evenodd" clip-rule="evenodd" d="M24.325 17.3C25.995 20.195 26.345 23.12 25.1 23.84C23.855 24.555 21.495 22.795 19.825 19.9C18.155 17.005 17.805 14.08 19.05 13.36C20.295 12.645 22.655 14.405 24.325 17.3Z" fill="#C1462C"/>
<path fill-rule="evenodd" clip-rule="evenodd" d="M12.39 24.22C11.83 23.255 11.725 22.255 11.93 21.7C11.99 21.54 12.05 21.44 12.12 21.375L11.25 21.88C10.375 22.385 10.25 23.8 10.965 25.045C11.685 26.29 12.975 26.885 13.85 26.38L14.75 25.86C14.63 25.905 14.515 25.905 14.35 25.875C13.765 25.775 12.955 25.185 12.395 24.215" fill="#FF5B36"/>
<path fill-rule="evenodd" clip-rule="evenodd" d="M21.695 17.28L20.605 17.525C20.79 18.01 21.035 18.54 21.335 19.06C21.635 19.58 21.965 20.05 22.3 20.46L23.06 19.635C23.16 19.525 23.19 19.36 23.125 19.225C22.985 18.92 22.825 18.61 22.65 18.3C22.47 17.99 22.28 17.7 22.085 17.425C21.995 17.305 21.845 17.245 21.695 17.28Z" fill="#FF5B36"/>
<path fill-rule="evenodd" clip-rule="evenodd" d="M24.795 23.3101C24.04 23.7451 21.81 22.2351 20.32 19.6451C18.825 17.0551 18.66 14.3551 19.385 13.9351C20.11 13.5151 22.365 15.0151 23.855 17.6051C25.35 20.1951 25.55 22.8751 24.795 23.3101ZM18.4 18.8551C17.085 20.2401 15 21.5801 14.135 22.1101C14.05 21.8651 13.975 21.5801 13.945 21.3001C16.19 19.9051 17.295 18.6601 17.92 17.5501C18.02 17.8851 18.2 18.3951 18.4 18.8551ZM18.575 12.7501C18.23 12.9501 18.05 13.3151 17.93 13.6951C17.725 14.3351 17.79 15.0251 17.47 15.9951C16.895 17.7301 15.555 19.4001 13.85 20.3851L12.83 20.9751C12.395 21.2251 12.295 22.6251 13.015 23.8701C13.555 24.8001 14.395 25.3801 14.965 25.5051C15.07 25.5251 15.195 25.5751 15.295 25.6951C15.475 25.9151 15.69 26.1651 15.92 26.4151C16.725 27.2851 17.575 27.9751 18.385 28.4351C18.635 28.5751 18.94 28.5901 19.205 28.4701C19.64 28.2701 20.035 28.0751 20.39 27.8951C20.58 27.8001 20.58 27.5301 20.39 27.4301C19.9 27.1701 19.4 26.8201 18.9 26.4001C18.9 26.4001 18.96 26.2601 19 26.1101C19.01 26.0651 19.02 26.0251 19.03 25.9901C19.05 25.9001 19.015 25.8051 18.95 25.7401C18.83 25.6251 18.705 25.5101 18.59 25.3901C18.4 25.1951 18.1 25.1551 17.865 25.2901C17.84 25.3051 17.815 25.3201 17.79 25.3301C17.575 25.1001 17.435 24.9351 17.29 24.7651C17.23 24.6951 17.175 24.6251 17.11 24.5451C18.68 23.8301 20.49 23.6201 22.055 23.9451C23.05 24.1501 23.62 24.5551 24.275 24.6951C24.66 24.7801 25.07 24.8101 25.415 24.6101C26.995 23.6951 26.745 20.3051 24.855 17.0301C22.965 13.7551 20.15 11.8451 18.57 12.7551" fill="#FF5B36"/>
<path fill-rule="evenodd" clip-rule="evenodd" d="M28.1399 14.4251L26.3449 15.5451C26.0899 15.6951 25.9999 16.0251 26.1499 16.2801C26.2999 16.5351 26.6299 16.6251 26.8849 16.4751L28.7499 15.4801C28.9299 15.3851 28.9949 15.1551 28.8949 14.9751L28.6499 14.5501C28.5449 14.3701 28.3149 14.3151 28.1399 14.4251Z" fill="#FF5B36"/>
<path fill-rule="evenodd" clip-rule="evenodd" d="M29.8949 19.05L27.7999 19.34C27.5049 19.37 27.2899 19.635 27.3199 19.93C27.3499 20.225 27.6149 20.44 27.9099 20.41L30.0199 20.265C30.2249 20.25 30.3799 20.07 30.3549 19.865L30.3049 19.375C30.2849 19.17 30.0949 19.025 29.8949 19.05Z" fill="#FF5B36"/>
<path fill-rule="evenodd" clip-rule="evenodd" d="M24.34 13.3351L25.635 11.6651C25.76 11.5001 25.73 11.2651 25.56 11.1451L25.16 10.8551C24.995 10.7351 24.76 10.7751 24.645 10.9451L23.465 12.7001C23.29 12.9401 23.345 13.2801 23.585 13.4551C23.825 13.6301 24.165 13.5751 24.34 13.3351Z" fill="#FF5B36"/>
<path d="M39.7486 14.5V8.31818H40.4972V13.8359H43.3707V14.5H39.7486ZM44.4332 14.5V9.86364H45.1456V14.5H44.4332ZM44.7955 9.09091C44.6566 9.09091 44.5369 9.04362 44.4363 8.94904C44.3377 8.85446 44.2884 8.74077 44.2884 8.60795C44.2884 8.47514 44.3377 8.36145 44.4363 8.26687C44.5369 8.17229 44.6566 8.125 44.7955 8.125C44.9343 8.125 45.053 8.17229 45.1516 8.26687C45.2522 8.36145 45.3026 8.47514 45.3026 8.60795C45.3026 8.74077 45.2522 8.85446 45.1516 8.94904C45.053 9.04362 44.9343 9.09091 44.7955 9.09091ZM49.7344 10.902L49.0945 11.0831C49.0543 10.9764 48.9949 10.8728 48.9164 10.7722C48.8399 10.6696 48.7353 10.585 48.6025 10.5186C48.4697 10.4522 48.2996 10.419 48.0924 10.419C47.8086 10.419 47.5722 10.4844 47.383 10.6152C47.1959 10.744 47.1023 10.908 47.1023 11.1072C47.1023 11.2843 47.1667 11.4242 47.2955 11.5268C47.4243 11.6294 47.6255 11.715 47.8992 11.7834L48.5874 11.9524C49.0019 12.053 49.3108 12.207 49.5141 12.4142C49.7173 12.6195 49.8189 12.8841 49.8189 13.2081C49.8189 13.4737 49.7425 13.7112 49.5895 13.9205C49.4386 14.1297 49.2273 14.2947 48.9557 14.4155C48.684 14.5362 48.3681 14.5966 48.0079 14.5966C47.535 14.5966 47.1436 14.494 46.8337 14.2887C46.5238 14.0835 46.3276 13.7836 46.2451 13.3892L46.9212 13.2202C46.9856 13.4697 47.1073 13.6568 47.2864 13.7816C47.4676 13.9064 47.704 13.9688 47.9958 13.9688C48.3278 13.9688 48.5914 13.8983 48.7866 13.7575C48.9838 13.6146 49.0824 13.4435 49.0824 13.2443C49.0824 13.0833 49.0261 12.9485 48.9134 12.8398C48.8007 12.7292 48.6276 12.6467 48.3942 12.5923L47.6215 12.4112C47.1969 12.3106 46.885 12.1547 46.6858 11.9434C46.4886 11.7301 46.39 11.4634 46.39 11.1435C46.39 10.8819 46.4634 10.6504 46.6103 10.4492C46.7592 10.248 46.9615 10.09 47.217 9.97532C47.4746 9.86062 47.7664 9.80327 48.0924 9.80327C48.5512 9.80327 48.9114 9.90388 49.173 10.1051C49.4366 10.3063 49.6237 10.572 49.7344 10.902ZM52.9076 9.86364V10.4673H50.5049V9.86364H52.9076ZM51.2052 8.75284H51.9175V13.1719C51.9175 13.3731 51.9467 13.524 52.0051 13.6246C52.0654 13.7232 52.1419 13.7897 52.2345 13.8239C52.329 13.8561 52.4287 13.8722 52.5333 13.8722C52.6118 13.8722 52.6762 13.8681 52.7265 13.8601C52.7768 13.85 52.817 13.842 52.8472 13.8359L52.9921 14.4759C52.9438 14.494 52.8764 14.5121 52.7899 14.5302C52.7033 14.5503 52.5937 14.5604 52.4608 14.5604C52.2596 14.5604 52.0624 14.5171 51.8692 14.4306C51.6781 14.344 51.5191 14.2122 51.3923 14.0352C51.2675 13.8581 51.2052 13.6347 51.2052 13.3651V8.75284ZM55.8732 14.5966C55.4265 14.5966 55.0411 14.498 54.7172 14.3008C54.3952 14.1016 54.1467 13.8239 53.9716 13.4677C53.7985 13.1095 53.712 12.6929 53.712 12.218C53.712 11.7431 53.7985 11.3246 53.9716 10.9624C54.1467 10.5981 54.3902 10.3144 54.7021 10.1112C55.016 9.90589 55.3822 9.80327 55.8008 9.80327C56.0423 9.80327 56.2807 9.84351 56.5162 9.92401C56.7516 10.0045 56.9659 10.1353 57.1591 10.3164C57.3523 10.4955 57.5062 10.733 57.6209 11.0288C57.7356 11.3246 57.793 11.6888 57.793 12.1214V12.4233H54.2191V11.8075H57.0685C57.0685 11.5459 57.0162 11.3125 56.9116 11.1072C56.8089 10.902 56.6621 10.74 56.4709 10.6213C56.2817 10.5025 56.0584 10.4432 55.8008 10.4432C55.517 10.4432 55.2715 10.5136 55.0643 10.6545C54.859 10.7933 54.7011 10.9744 54.5904 11.1978C54.4797 11.4212 54.4244 11.6606 54.4244 11.9162V12.3267C54.4244 12.6768 54.4847 12.9737 54.6055 13.2172C54.7282 13.4586 54.8983 13.6428 55.1156 13.7695C55.3329 13.8943 55.5855 13.9567 55.8732 13.9567C56.0604 13.9567 56.2294 13.9305 56.3803 13.8782C56.5333 13.8239 56.6651 13.7434 56.7757 13.6367C56.8864 13.5281 56.9719 13.3932 57.0323 13.2322L57.7205 13.4254C57.6481 13.6589 57.5263 13.8641 57.3553 14.0412C57.1842 14.2163 56.973 14.3531 56.7214 14.4517C56.4699 14.5483 56.1871 14.5966 55.8732 14.5966ZM59.589 11.7109V14.5H58.8766V9.86364H59.5648V10.5881H59.6252C59.7338 10.3526 59.8989 10.1635 60.1202 10.0206C60.3416 9.87571 60.6273 9.80327 60.9775 9.80327C61.2914 9.80327 61.5661 9.86766 61.8015 9.99645C62.0369 10.1232 62.2201 10.3164 62.3509 10.576C62.4817 10.8336 62.5471 11.1596 62.5471 11.554V14.5H61.8347V11.6023C61.8347 11.238 61.7401 10.9543 61.551 10.7511C61.3618 10.5458 61.1022 10.4432 60.7722 10.4432C60.5448 10.4432 60.3416 10.4925 60.1625 10.5911C59.9854 10.6897 59.8455 10.8336 59.7429 11.0227C59.6403 11.2119 59.589 11.4413 59.589 11.7109ZM68.1229 14.5966C67.7044 14.5966 67.3371 14.497 67.0212 14.2978C66.7073 14.0985 66.4618 13.8198 66.2847 13.4616C66.1096 13.1035 66.0221 12.6849 66.0221 12.206C66.0221 11.723 66.1096 11.3014 66.2847 10.9412C66.4618 10.581 66.7073 10.3013 67.0212 10.1021C67.3371 9.90288 67.7044 9.80327 68.1229 9.80327C68.5415 9.80327 68.9077 9.90288 69.2216 10.1021C69.5376 10.3013 69.7831 10.581 69.9581 10.9412C70.1352 11.3014 70.2238 11.723 70.2238 12.206C70.2238 12.6849 70.1352 13.1035 69.9581 13.4616C69.7831 13.8198 69.5376 14.0985 69.2216 14.2978C68.9077 14.497 68.5415 14.5966 68.1229 14.5966ZM68.1229 13.9567C68.4409 13.9567 68.7025 13.8752 68.9077 13.7122C69.113 13.5492 69.2649 13.3349 69.3635 13.0692C69.4621 12.8036 69.5114 12.5159 69.5114 12.206C69.5114 11.8961 69.4621 11.6073 69.3635 11.3397C69.2649 11.072 69.113 10.8557 68.9077 10.6907C68.7025 10.5257 68.4409 10.4432 68.1229 10.4432C67.805 10.4432 67.5434 10.5257 67.3381 10.6907C67.1329 10.8557 66.9809 11.072 66.8823 11.3397C66.7837 11.6073 66.7344 11.8961 66.7344 12.206C66.7344 12.5159 66.7837 12.8036 66.8823 13.0692C66.9809 13.3349 67.1329 13.5492 67.3381 13.7122C67.5434 13.8752 67.805 13.9567 68.1229 13.9567ZM72.0235 11.7109V14.5H71.3112V9.86364H71.9994V10.5881H72.0597C72.1684 10.3526 72.3334 10.1635 72.5548 10.0206C72.7761 9.87571 73.0619 9.80327 73.412 9.80327C73.7259 9.80327 74.0006 9.86766 74.2361 9.99645C74.4715 10.1232 74.6546 10.3164 74.7854 10.576C74.9162 10.8336 74.9816 11.1596 74.9816 11.554V14.5H74.2693V11.6023C74.2693 11.238 74.1747 10.9543 73.9855 10.7511C73.7964 10.5458 73.5368 10.4432 73.2068 10.4432C72.9794 10.4432 72.7761 10.4925 72.597 10.5911C72.42 10.6897 72.2801 10.8336 72.1775 11.0227C72.0748 11.2119 72.0235 11.4413 72.0235 11.7109Z" fill="black"/>
<path d="M39.5412 30.5V17.7727H43.9908C44.8774 17.7727 45.6086 17.926 46.1845 18.2326C46.7604 18.535 47.1892 18.9431 47.4709 19.4569C47.7526 19.9664 47.8935 20.532 47.8935 21.1534C47.8935 21.7003 47.7961 22.1519 47.6014 22.5082C47.4108 22.8645 47.1581 23.1462 46.8432 23.3533C46.5325 23.5605 46.1948 23.7138 45.8303 23.8132V23.9375C46.2197 23.9624 46.6112 24.0991 47.0048 24.3477C47.3984 24.5962 47.7277 24.9525 47.9929 25.4165C48.258 25.8806 48.3906 26.4482 48.3906 27.1193C48.3906 27.7573 48.2456 28.3311 47.9556 28.8407C47.6656 29.3503 47.2078 29.7543 46.5822 30.0526C45.9566 30.3509 45.1425 30.5 44.1399 30.5H39.5412ZM41.0824 29.1328H44.1399C45.1467 29.1328 45.8613 28.9381 46.2839 28.5487C46.7106 28.1551 46.924 27.6786 46.924 27.1193C46.924 26.6884 46.8142 26.2907 46.5946 25.9261C46.3751 25.5574 46.0623 25.2633 45.6562 25.0437C45.2502 24.82 44.7696 24.7081 44.2145 24.7081H41.0824V29.1328ZM41.0824 23.3658H43.9411C44.4051 23.3658 44.8235 23.2746 45.1964 23.0923C45.5734 22.91 45.8717 22.6532 46.0913 22.3217C46.315 21.9903 46.4268 21.6009 46.4268 21.1534C46.4268 20.5941 46.2321 20.1197 45.8427 19.7303C45.4532 19.3367 44.8359 19.1399 43.9908 19.1399H41.0824V23.3658ZM56.4898 26.5973V20.9545H57.9564V30.5H56.4898V28.8842H56.3904C56.1666 29.369 55.8186 29.7812 55.3463 30.1209C54.874 30.4565 54.2774 30.6243 53.5566 30.6243C52.96 30.6243 52.4297 30.4938 51.9656 30.2328C51.5016 29.9676 51.137 29.5699 50.8719 29.0396C50.6067 28.5051 50.4742 27.8319 50.4742 27.0199V20.9545H51.9408V26.9205C51.9408 27.6165 52.1355 28.1716 52.5249 28.5859C52.9185 29.0002 53.4198 29.2074 54.0289 29.2074C54.3934 29.2074 54.7642 29.1142 55.1412 28.9277C55.5224 28.7413 55.8414 28.4554 56.0983 28.0701C56.3593 27.6848 56.4898 27.1939 56.4898 26.5973ZM61.8592 17.7727V30.5H60.3926V17.7727H61.8592ZM65.7621 17.7727V30.5H64.2955V17.7727H65.7621ZM69.6649 24.7578V30.5H68.1983V17.7727H69.6649V22.446H69.7892C70.0129 21.953 70.3485 21.5615 70.7959 21.2715C71.2475 20.9773 71.8483 20.8303 72.5981 20.8303C73.2486 20.8303 73.8183 20.9608 74.3071 21.2218C74.796 21.4786 75.1751 21.8743 75.4444 22.4087C75.7178 22.939 75.8545 23.6143 75.8545 24.4347V30.5H74.3879V24.5341C74.3879 23.7759 74.1911 23.1897 73.7975 22.7754C73.4081 22.3569 72.8674 22.1477 72.1756 22.1477C71.695 22.1477 71.2641 22.2492 70.8829 22.4522C70.5059 22.6552 70.2076 22.9515 69.9881 23.3409C69.7726 23.7303 69.6649 24.2027 69.6649 24.7578ZM82.1655 30.6989C81.3037 30.6989 80.5476 30.4938 79.8972 30.0836C79.2509 29.6735 78.7454 29.0997 78.3809 28.3622C78.0204 27.6248 77.8402 26.763 77.8402 25.777C77.8402 24.7827 78.0204 23.9147 78.3809 23.1731C78.7454 22.4315 79.2509 21.8556 79.8972 21.4455C80.5476 21.0353 81.3037 20.8303 82.1655 20.8303C83.0272 20.8303 83.7813 21.0353 84.4276 21.4455C85.078 21.8556 85.5835 22.4315 85.9439 23.1731C86.3085 23.9147 86.4908 24.7827 86.4908 25.777C86.4908 26.763 86.3085 27.6248 85.9439 28.3622C85.5835 29.0997 85.078 29.6735 84.4276 30.0836C83.7813 30.4938 83.0272 30.6989 82.1655 30.6989ZM82.1655 29.3814C82.8201 29.3814 83.3587 29.2136 83.7812 28.878C84.2038 28.5424 84.5166 28.1012 84.7196 27.5543C84.9226 27.0075 85.0241 26.415 85.0241 25.777C85.0241 25.139 84.9226 24.5444 84.7196 23.9934C84.5166 23.4424 84.2038 22.997 83.7812 22.6573C83.3587 22.3176 82.8201 22.1477 82.1655 22.1477C81.5109 22.1477 80.9723 22.3176 80.5497 22.6573C80.1271 22.997 79.8143 23.4424 79.6113 23.9934C79.4083 24.5444 79.3068 25.139 79.3068 25.777C79.3068 26.415 79.4083 27.0075 79.6113 27.5543C79.8143 28.1012 80.1271 28.5424 80.5497 28.878C80.9723 29.2136 81.5109 29.3814 82.1655 29.3814ZM88.4795 30.5V20.9545H89.8964V22.3963H89.9959C90.1699 21.924 90.4847 21.5408 90.9405 21.2466C91.3962 20.9525 91.9099 20.8054 92.4817 20.8054C92.5894 20.8054 92.724 20.8075 92.8856 20.8116C93.0472 20.8158 93.1694 20.822 93.2523 20.8303V22.3217C93.2025 22.3093 93.0886 22.2907 92.9105 22.2658C92.7365 22.2368 92.5521 22.2223 92.3574 22.2223C91.8934 22.2223 91.4791 22.3197 91.1145 22.5144C90.754 22.705 90.4682 22.9701 90.2569 23.3098C90.0497 23.6454 89.9462 24.0286 89.9462 24.4595V30.5H88.4795ZM96.2074 24.7578V30.5H94.7408V20.9545H96.1577V22.446H96.282C96.5057 21.9613 96.8454 21.5719 97.3011 21.2777C97.7569 20.9794 98.3452 20.8303 99.0661 20.8303C99.7124 20.8303 100.278 20.9628 100.763 21.228C101.247 21.489 101.624 21.8867 101.894 22.4212C102.163 22.9515 102.298 23.6226 102.298 24.4347V30.5H100.831V24.5341C100.831 23.7842 100.636 23.2 100.247 22.7816C99.8574 22.359 99.3229 22.1477 98.6435 22.1477C98.1753 22.1477 97.7569 22.2492 97.3881 22.4522C97.0236 22.6552 96.7356 22.9515 96.5243 23.3409C96.313 23.7303 96.2074 24.2027 96.2074 24.7578Z" fill="black"/>
<rect x="0.5" y="0.5" width="113" height="39" rx="4.5" stroke="#A6A6A6"/>
</svg>

<svg xmlns="http://www.w3.org/2000/svg" width="114" height="40" fill="none" viewBox="0 0 114 40">
  <rect width="113" height="39" x=".5" y=".5" fill="#fff" rx="4.5"/>
  <rect width="113" height="39" x=".5" y=".5" stroke="#A6A6A6" rx="4.5"/>
  <path fill="#FF866A" fill-rule="evenodd" d="M12.048 21.556s4.007-2.454 5.445-5.663c.743 2.297 1.058 3.07 1.058 3.07s-3.385 3.167-6.062 4.333l-.435-1.734-.006-.006Z" clip-rule="evenodd"/>
  <path fill="#C1462C" fill-rule="evenodd" d="M25.138 16.806c2.018 3.499 2.441 7.034.937 7.904-1.505.865-4.358-1.262-6.376-4.762-2.019-3.499-2.442-7.034-.937-7.905 1.505-.864 4.357 1.264 6.376 4.763" clip-rule="evenodd"/>
  <path fill="#FF5B36" fill-rule="evenodd" d="M10.712 25.17c-.677-1.167-.804-2.375-.556-3.046.073-.193.145-.314.23-.393l-1.052.61c-1.057.61-1.208 2.321-.344 3.826.87 1.505 2.43 2.224 3.487 1.614l1.088-.629c-.145.054-.284.054-.484.018-.707-.12-1.686-.834-2.363-2.006m11.242-8.382-1.318.296c.223.586.52 1.227.882 1.855a12.78 12.78 0 0 0 1.166 1.692l.919-.997a.454.454 0 0 0 .078-.495c-.169-.37-.362-.744-.574-1.119a13.882 13.882 0 0 0-.683-1.057.457.457 0 0 0-.47-.175Z" clip-rule="evenodd"/>
  <path fill="#FF5B36" fill-rule="evenodd" d="M25.706 24.07c-.913.526-3.608-1.3-5.409-4.43-1.807-3.13-2.006-6.394-1.13-6.902.876-.507 3.602 1.306 5.403 4.436 1.807 3.13 2.048 6.37 1.136 6.896Zm-7.73-5.385c-1.59 1.674-4.11 3.294-5.155 3.934a4.548 4.548 0 0 1-.23-.979c2.714-1.686 4.05-3.19 4.805-4.532.121.405.339 1.021.58 1.577m.212-7.379c-.417.242-.635.683-.78 1.142-.248.774-.169 1.608-.556 2.78-.695 2.097-2.314 4.116-4.375 5.307l-1.233.713c-.526.302-.647 1.994.224 3.499.652 1.124 1.668 1.825 2.357 1.976a.67.67 0 0 1 .398.23c.218.265.478.568.756.87.973 1.051 2 1.885 2.98 2.441.301.17.67.188.99.043a41.063 41.063 0 0 0 1.433-.695.315.315 0 0 0 0-.562 10.508 10.508 0 0 1-1.801-1.245s.072-.17.12-.35a2.45 2.45 0 0 1 .037-.146.333.333 0 0 0-.097-.302c-.145-.139-.296-.278-.435-.423a.723.723 0 0 0-.876-.12c-.03.017-.06.035-.091.048-.26-.279-.429-.478-.604-.684-.073-.084-.14-.169-.218-.265 1.898-.865 4.085-1.118 5.977-.726 1.203.248 1.892.738 2.683.907.466.103.961.139 1.378-.103 1.91-1.106 1.608-5.203-.677-9.162-2.284-3.958-5.686-6.267-7.596-5.167m11.567 2.018-2.17 1.354a.652.652 0 0 0-.235.889c.18.308.58.417.888.236l2.254-1.203a.446.446 0 0 0 .175-.61l-.296-.514a.44.44 0 0 0-.616-.151m2.121 5.589-2.532.351a.65.65 0 0 0 .133 1.294l2.55-.175a.435.435 0 0 0 .405-.484l-.06-.592a.444.444 0 0 0-.496-.393Zm-6.714-6.907 1.565-2.018a.44.44 0 0 0-.09-.629l-.484-.35a.44.44 0 0 0-.622.109l-1.426 2.12a.656.656 0 0 0 .145.913c.29.212.7.145.912-.145" clip-rule="evenodd"/>
  <path fill="#000" d="M39.749 14.5V8.318h.748v5.518h2.874v.664h-3.622Zm4.684 0V9.864h.713V14.5h-.713Zm.362-5.41a.506.506 0 0 1-.359-.141.456.456 0 0 1-.148-.341c0-.133.05-.247.148-.341.1-.095.22-.142.36-.142.138 0 .257.047.356.142.1.094.15.208.15.341 0 .133-.05.246-.15.341a.496.496 0 0 1-.357.142Zm4.94 1.812-.64.181c-.04-.107-.1-.21-.179-.31a.865.865 0 0 0-.313-.254 1.14 1.14 0 0 0-.51-.1c-.284 0-.52.065-.71.196-.187.129-.28.293-.28.492a.51.51 0 0 0 .192.42c.13.102.33.188.604.256l.688.17c.415.1.724.254.927.461.203.206.305.47.305.794 0 .266-.077.503-.23.713-.15.209-.362.374-.633.495a2.33 2.33 0 0 1-.948.18c-.473 0-.864-.102-1.174-.307-.31-.205-.506-.505-.589-.9l.676-.169c.065.25.186.437.365.562.182.124.418.187.71.187.332 0 .595-.07.79-.211.198-.143.296-.314.296-.514a.54.54 0 0 0-.169-.404c-.112-.11-.285-.193-.519-.248l-.773-.18c-.424-.101-.736-.257-.935-.469a1.133 1.133 0 0 1-.296-.8c0-.261.073-.493.22-.694a1.5 1.5 0 0 1 .607-.474 2.13 2.13 0 0 1 .875-.172c.46 0 .82.1 1.081.302.264.201.45.467.561.797Zm3.173-1.038v.603h-2.403v-.603h2.403Zm-1.703-1.111h.712v4.419c0 .201.03.352.088.453.06.098.137.165.23.199a.92.92 0 0 0 .298.048c.079 0 .143-.004.194-.012l.12-.024.145.64a1.491 1.491 0 0 1-.531.085c-.201 0-.399-.044-.592-.13a1.177 1.177 0 0 1-.477-.396c-.125-.177-.187-.4-.187-.67V8.753Zm4.668 5.844c-.447 0-.832-.099-1.156-.296a1.99 1.99 0 0 1-.745-.833c-.174-.358-.26-.775-.26-1.25s.086-.893.26-1.256c.175-.364.418-.648.73-.85.314-.206.68-.309 1.099-.309.241 0 .48.04.715.121.236.08.45.211.643.392.193.18.347.417.462.713.115.296.172.66.172 1.092v.302h-3.574v-.616h2.85a1.52 1.52 0 0 0-.157-.7 1.183 1.183 0 0 0-.441-.486 1.234 1.234 0 0 0-.67-.178c-.284 0-.53.07-.737.212a1.39 1.39 0 0 0-.474.543c-.11.223-.166.463-.166.718v.41c0 .35.06.648.181.891.123.242.293.426.51.553.218.124.47.187.758.187.187 0 .356-.027.507-.079.153-.054.285-.135.396-.241.11-.109.196-.244.256-.405l.689.193a1.526 1.526 0 0 1-.366.616 1.78 1.78 0 0 1-.634.41 2.35 2.35 0 0 1-.848.146Zm3.716-2.886V14.5h-.712V9.864h.688v.724h.06a1.33 1.33 0 0 1 .495-.567c.222-.145.507-.218.858-.218.313 0 .588.065.823.193.236.127.42.32.55.58.13.258.196.584.196.978V14.5h-.712v-2.898c0-.364-.095-.648-.284-.85-.19-.206-.449-.309-.779-.309-.227 0-.43.05-.61.148a1.058 1.058 0 0 0-.42.432 1.43 1.43 0 0 0-.153.688Zm8.534 2.886c-.419 0-.786-.1-1.102-.3a2.018 2.018 0 0 1-.736-.835c-.175-.358-.263-.777-.263-1.256 0-.483.088-.905.263-1.265.177-.36.422-.64.736-.839.316-.2.683-.299 1.102-.299.418 0 .785.1 1.099.3.316.198.561.478.736.838.177.36.266.782.266 1.265 0 .479-.089.898-.266 1.256-.175.358-.42.636-.736.836a2.01 2.01 0 0 1-1.1.299Zm0-.64c.318 0 .58-.082.785-.245a1.44 1.44 0 0 0 .456-.643 2.47 2.47 0 0 0 .147-.863c0-.31-.049-.599-.147-.866a1.46 1.46 0 0 0-.456-.65c-.206-.164-.467-.247-.785-.247s-.58.083-.785.248a1.46 1.46 0 0 0-.456.649 2.487 2.487 0 0 0-.148.866c0 .31.05.598.148.863.099.266.25.48.456.643.205.163.467.245.785.245Zm3.9-2.246V14.5h-.712V9.864H72v.724h.06c.11-.235.274-.424.496-.567.221-.145.507-.218.857-.218.314 0 .589.065.824.193a1.3 1.3 0 0 1 .55.58c.13.258.196.584.196.978V14.5h-.713v-2.898c0-.364-.094-.648-.284-.85-.189-.206-.448-.309-.778-.309-.228 0-.43.05-.61.148a1.059 1.059 0 0 0-.42.432 1.43 1.43 0 0 0-.154.688ZM39.541 30.5V17.773h4.45c.886 0 1.618.153 2.194.46.575.302 1.004.71 1.286 1.224.282.51.423 1.075.423 1.696 0 .547-.098.999-.293 1.355-.19.357-.443.638-.758.845-.31.207-.648.36-1.013.46v.125c.39.024.781.161 1.175.41.393.248.723.605.988 1.069.265.464.398 1.031.398 1.702 0 .638-.145 1.212-.435 1.722-.29.51-.748.913-1.374 1.212-.625.298-1.44.447-2.442.447h-4.6Zm1.541-1.367h3.058c1.007 0 1.721-.195 2.144-.584.427-.394.64-.87.64-1.43 0-.43-.11-.828-.33-1.193a2.383 2.383 0 0 0-.938-.882c-.406-.224-.886-.336-1.441-.336h-3.133v4.425Zm0-5.767h2.86a2.82 2.82 0 0 0 1.254-.274c.377-.182.676-.439.895-.77.224-.332.336-.721.336-1.169a1.94 1.94 0 0 0-.584-1.423c-.39-.393-1.007-.59-1.852-.59h-2.909v4.226Zm15.408 3.231v-5.643h1.466V30.5H56.49v-1.616h-.1a3.132 3.132 0 0 1-1.044 1.237c-.472.335-1.069.503-1.79.503-.596 0-1.126-.13-1.59-.391-.464-.265-.829-.663-1.094-1.193-.265-.535-.398-1.208-.398-2.02v-6.066h1.467v5.966c0 .696.194 1.252.584 1.666.394.414.895.621 1.504.621a2.49 2.49 0 0 0 1.112-.28c.381-.186.7-.472.957-.857.261-.385.392-.876.392-1.473Zm5.37-8.824V30.5h-1.467V17.773h1.466Zm3.902 0V30.5h-1.466V17.773h1.466Zm3.903 6.985V30.5h-1.467V17.773h1.467v4.673h.124c.224-.493.56-.885 1.007-1.175.451-.294 1.052-.44 1.802-.44.65 0 1.22.13 1.71.39.488.258.867.653 1.136 1.188.274.53.41 1.205.41 2.026V30.5h-1.466v-5.966c0-.758-.197-1.344-.59-1.759-.39-.418-.93-.627-1.622-.627-.481 0-.912.101-1.293.304-.377.203-.675.5-.895.889-.215.39-.323.862-.323 1.417Zm12.5 5.94c-.861 0-1.617-.204-2.268-.614-.646-.41-1.152-.984-1.516-1.722-.36-.737-.54-1.599-.54-2.585 0-.994.18-1.862.54-2.604.364-.741.87-1.317 1.516-1.727.65-.41 1.407-.616 2.268-.616.862 0 1.616.205 2.263.616.65.41 1.156.985 1.516 1.727.364.742.547 1.61.547 2.604 0 .986-.183 1.848-.547 2.585-.36.738-.866 1.312-1.516 1.722-.647.41-1.4.615-2.263.615Zm0-1.317c.655 0 1.194-.167 1.616-.503.423-.336.736-.777.939-1.324a5.063 5.063 0 0 0 .304-1.777 5.12 5.12 0 0 0-.304-1.784 3.006 3.006 0 0 0-.939-1.336c-.422-.34-.96-.51-1.616-.51-.654 0-1.193.17-1.615.51-.423.34-.736.785-.939 1.336a5.12 5.12 0 0 0-.304 1.784c0 .638.101 1.23.304 1.777.203.547.516.988.939 1.324.422.336.96.503 1.615.503ZM88.48 30.5v-9.546h1.417v1.442h.1c.174-.472.489-.855.945-1.15a2.78 2.78 0 0 1 1.54-.44c.108 0 .243.002.405.006.161.004.283.01.366.018v1.492a4.407 4.407 0 0 0-.341-.056 3.364 3.364 0 0 0-.554-.044 2.6 2.6 0 0 0-1.242.292 2.2 2.2 0 0 0-.858.796c-.207.335-.31.719-.31 1.15v6.04H88.48Zm7.728-5.742V30.5h-1.466v-9.546h1.417v1.492h.124a2.726 2.726 0 0 1 1.02-1.168c.455-.299 1.043-.448 1.764-.448.646 0 1.212.133 1.697.398.484.261.861.659 1.131 1.193.269.53.404 1.202.404 2.014V30.5h-1.467v-5.966c0-.75-.195-1.334-.584-1.752-.39-.423-.924-.634-1.603-.634a2.56 2.56 0 0 0-1.256.304 2.18 2.18 0 0 0-.864.889c-.211.39-.317.862-.317 1.417Z"/>
</svg>
